src/home.svg

<svg viewBox="0 0 16 16" fill="none" xmlns="http://www.w3.org/2000/svg"><path d="M2.32 8 2 8.32V14h5v-4h2v4h5V8.32L13.68 8 8 1.63 2.32 8ZM13 13h-3V9H6v4H3V8.75L8 3l5 5.75V13Z" fill="#111111"/></svg>

<svg viewBox="0 0 16 16" fill="none" xmlns="http://www.w3.org/2000/svg"><path d="M2.32 8L2 8.32V14H7V10H9V14H14V8.32L13.68 8L8 1.63L2.32 8ZM13 13H10V9H6V13H3V8.75L8 3L13 8.75V13Z" fill="#111111"/></svg>
